icons/circle/48/gmtpicon.svg

<svg xmlns="http://www.w3.org/2000/svg" viewBox="0 0 48 48">
 <defs>
  <linearGradient id="linearGradient3764" x1="1" x2="47" gradientUnits="userSpaceOnUse" gradientTransform="matrix(0,-1,1,0,-1.5e-6,47.999998)">
   <stop style="stop-color:#badad1;stop-opacity:1"/>
   <stop offset="1" style="stop-color:#c7e1d9;stop-opacity:1"/>
  </linearGradient>
 </defs>
 <g>
  <path d="m 36.31 5 c 5.859 4.062 9.688 10.831 9.688 18.5 c 0 12.426 -10.07 22.5 -22.5 22.5 c -7.669 0 -14.438 -3.828 -18.5 -9.688 c 1.037 1.822 2.306 3.499 3.781 4.969 c 4.085 3.712 9.514 5.969 15.469 5.969 c 12.703 0 23 -10.298 23 -23 c 0 -5.954 -2.256 -11.384 -5.969 -15.469 c -1.469 -1.475 -3.147 -2.744 -4.969 -3.781 z m 4.969 3.781 c 3.854 4.113 6.219 9.637 6.219 15.719 c 0 12.703 -10.297 23 -23 23 c -6.081 0 -11.606 -2.364 -15.719 -6.219 c 4.16 4.144 9.883 6.719 16.219 6.719 c 12.703 0 23 -10.298 23 -23 c 0 -6.335 -2.575 -12.06 -6.719 -16.219 z" style="opacity:0.05"/>
  <path d="m 41.28 8.781 c 3.712 4.085 5.969 9.514 5.969 15.469 c 0 12.703 -10.297 23 -23 23 c -5.954 0 -11.384 -2.256 -15.469 -5.969 c 4.113 3.854 9.637 6.219 15.719 6.219 c 12.703 0 23 -10.298 23 -23 c 0 -6.081 -2.364 -11.606 -6.219 -15.719 z" style="opacity:0.1"/>
  <path d="m 31.25 2.375 c 8.615 3.154 14.75 11.417 14.75 21.13 c 0 12.426 -10.07 22.5 -22.5 22.5 c -9.708 0 -17.971 -6.135 -21.12 -14.75 a 23 23 0 0 0 44.875 -7 a 23 23 0 0 0 -16 -21.875 z" style="opacity:0.2"/>
 </g>
 <g>
  <path d="m 24 1 c 12.703 0 23 10.297 23 23 c 0 12.703 -10.297 23 -23 23 -12.703 0 -23 -10.297 -23 -23 0 -12.703 10.297 -23 23 -23 z" style="fill:url(#linearGradient3764);fill-opacity:1"/>
 </g>
 <g>
  <path d="m 40.03 7.531 c 3.712 4.084 5.969 9.514 5.969 15.469 0 12.703 -10.297 23 -23 23 c -5.954 0 -11.384 -2.256 -15.469 -5.969 4.178 4.291 10.01 6.969 16.469 6.969 c 12.703 0 23 -10.298 23 -23 0 -6.462 -2.677 -12.291 -6.969 -16.469 z" style="opacity:0.1"/>
 </g>
 <path d="m 19 12 c -1.108 0 -2 0.892 -2 2 l 0 22 c 0 1.108 0.892 2 2 2 l 12 0 c 1.108 0 2 -0.892 2 -2 l 0 -22 c 0 -1.108 -0.892 -2 -2 -2 l -12 0 z m 6 16 a 4 4 0 0 1 4 4 4 4 0 0 1 -4 4 4 4 0 0 1 -4 -4 4 4 0 0 1 4 -4 z m 0 1 a 3 3 0 0 0 -3 3 3 3 0 0 0 3 3 3 3 0 0 0 3 -3 3 3 0 0 0 -3 -3 z" style="fill:#000;opacity:0.1;fill-opacity:1;stroke:none"/>
 <rect width="14" height="14" x="17" y="12" style="fill:#7eadbb;opacity:1;fill-opacity:1;stroke:none"/>
 <path d="m 18,11 c -1.108,0 -2,0.892 -2,2 l 0,22 c 0,1.108 0.892,2 2,2 l 12,0 c 1.108,0 2,-0.892 2,-2 l 0,-22 c 0,-1.108 -0.892,-2 -2,-2 l -12,0 z m 0.5,2 11,0 c 0.277,0 0.5,0.223 0.5,0.5 l 0,11 c 0,0.277 -0.223,0.5 -0.5,0.5 l -11,0 C 18.223,25 18,24.777 18,24.5 l 0,-11 C 18,13.223 18.223,13 18.5,13 Z M 24,27 a 4,4 0 0 1 4,4 4,4 0 0 1 -4,4 4,4 0 0 1 -4,-4 4,4 0 0 1 4,-4 z m 0,1 a 3,3 0 0 0 -3,3 3,3 0 0 0 3,3 3,3 0 0 0 3,-3 3,3 0 0 0 -3,-3 z" style="fill:#505050;opacity:1;fill-opacity:1;stroke:none"/>
 <path d="m 24 26 c -0.554 0 -1 0.446 -1 1 l 0 0.131 a 4 4 0 0 1 1 -0.131 a 4 4 0 0 1 1 0.133 l 0 -0.133 c 0 -0.554 -0.446 -1 -1 -1 z m -4 4 c -0.554 0 -1 0.446 -1 1 c 0 0.554 0.446 1 1 1 l 0.131 0 a 4 4 0 0 1 -0.131 -1 a 4 4 0 0 1 0.133 -1 l -0.133 0 z m 7.869 0 a 4 4 0 0 1 0.131 1 a 4 4 0 0 1 -0.133 1 l 0.133 0 c 0.554 0 1 -0.446 1 -1 c 0 -0.554 -0.446 -1 -1 -1 l -0.131 0 z m -4.869 4.867 l 0 0.133 c 0 0.554 0.446 1 1 1 c 0.554 0 1 -0.446 1 -1 l 0 -0.131 a 4 4 0 0 1 -1 0.131 a 4 4 0 0 1 -1 -0.133 z" style="fill:#464646;opacity:1;fill-opacity:1;stroke:none"/>
</svg>

<svg xmlns="http://www.w3.org/2000/svg" viewBox="0 0 48 48">
  <defs>
    <linearGradient id="a" x1="1" x2="47" gradientUnits="userSpaceOnUse" gradientTransform="rotate(-90 24 24)">
      <stop stop-color="#badad1"/>
      <stop offset="1" stop-color="#c7e1d9"/>
    </linearGradient>
  </defs>
  <path d="M36.31 5c5.859 4.062 9.688 10.831 9.688 18.5 0 12.426-10.07 22.5-22.5 22.5-7.669 0-14.438-3.828-18.5-9.688a23.24 23.24 0 0 0 3.781 4.969 22.923 22.923 0 0 0 15.469 5.969c12.703 0 23-10.298 23-23a22.92 22.92 0 0 0-5.969-15.469A23.216 23.216 0 0 0 36.31 5zm4.969 3.781A22.911 22.911 0 0 1 47.498 24.5c0 12.703-10.297 23-23 23a22.909 22.909 0 0 1-15.719-6.219C12.939 45.425 18.662 48 24.998 48c12.703 0 23-10.298 23-23 0-6.335-2.575-12.06-6.719-16.219z" opacity=".05"/>
  <path d="M41.28 8.781a22.923 22.923 0 0 1 5.969 15.469c0 12.703-10.297 23-23 23A22.92 22.92 0 0 1 8.78 41.281 22.911 22.911 0 0 0 24.499 47.5c12.703 0 23-10.298 23-23A22.909 22.909 0 0 0 41.28 8.781z" opacity=".1"/>
  <path d="M31.25 2.375C39.865 5.529 46 13.792 46 23.505c0 12.426-10.07 22.5-22.5 22.5-9.708 0-17.971-6.135-21.12-14.75a23 23 0 0 0 44.875-7 23 23 0 0 0-16-21.875z" opacity=".2"/>
  <path d="M24 1c12.703 0 23 10.297 23 23S36.703 47 24 47 1 36.703 1 24 11.297 1 24 1z" fill="url(#a)"/>
  <path d="M40.03 7.531A22.922 22.922 0 0 1 45.999 23c0 12.703-10.297 23-23 23A22.92 22.92 0 0 1 7.53 40.031C11.708 44.322 17.54 47 23.999 47c12.703 0 23-10.298 23-23 0-6.462-2.677-12.291-6.969-16.469z" opacity=".1"/>
  <path d="M19 12c-1.108 0-2 .892-2 2v22c0 1.108.892 2 2 2h12c1.108 0 2-.892 2-2V14c0-1.108-.892-2-2-2H19zm6 16a4 4 0 0 1 4 4 4 4 0 0 1-4 4 4 4 0 0 1-4-4 4 4 0 0 1 4-4zm0 1a3 3 0 0 0-3 3 3 3 0 0 0 3 3 3 3 0 0 0 3-3 3 3 0 0 0-3-3z" opacity=".1"/>
  <path fill="#7eadbb" d="M17 12h14v14H17z"/>
  <path d="M18 11c-1.108 0-2 .892-2 2v22c0 1.108.892 2 2 2h12c1.108 0 2-.892 2-2V13c0-1.108-.892-2-2-2H18zm.5 2h11c.277 0 .5.223.5.5v11c0 .277-.223.5-.5.5h-11a.499.499 0 0 1-.5-.5v-11c0-.277.223-.5.5-.5zM24 27a4 4 0 0 1 4 4 4 4 0 0 1-4 4 4 4 0 0 1-4-4 4 4 0 0 1 4-4zm0 1a3 3 0 0 0-3 3 3 3 0 0 0 3 3 3 3 0 0 0 3-3 3 3 0 0 0-3-3z" fill="#505050"/>
  <path d="M24 26c-.554 0-1 .446-1 1v.131A4 4 0 0 1 24 27a4 4 0 0 1 1 .133V27c0-.554-.446-1-1-1zm-4 4c-.554 0-1 .446-1 1s.446 1 1 1h.131A4 4 0 0 1 20 31a4 4 0 0 1 .133-1H20zm7.869 0A4 4 0 0 1 28 31a4 4 0 0 1-.133 1H28c.554 0 1-.446 1-1s-.446-1-1-1h-.131zM23 34.867V35c0 .554.446 1 1 1s1-.446 1-1v-.131A4 4 0 0 1 24 35a4 4 0 0 1-1-.133z" fill="#464646"/>
</svg>
